X: 1
T: Hound's Tune
M: 4/4
L: 1/8
R: reel
K: Dmaj
F2 DFED E2 | ABAG FDDF | EDEF D2 D2 |
F2 DFED E2 |ABAG FDDF | EDEF D2 D2 |
F2 DFED E2 |ABAG FDDF | EDEF D2 D2 |
dfed cA A2 | ABcd e2 ef | gfed cAAB | ABcA d2 dA |
dfed cA A2 | ABcd e2 ef | gfed cAAB | ABcA d2 d2 |
